!!!!SEGMENT: pl-sa--29-a-i-29--001_konigsperger-marianus--vesperae-ex-d-domine-ad-adjuvandum.krn
!!!cenid: 17xx:538
!!!COM: Königsperger, Marianus
!!!COM-rismID: pe367346
!!!CDT: 1708/12/02-1769/10/09
!!!CNT: German
!!!OPR: Vesperae ex D
!!!OTL: Domine ad adjuvandum
!!!OMV: 001
!!!PDT:
!!!AGN: Sacred; Vespers
!!!SMS-siglum: PL-SA
!!!SMS-shelfmark: 29/A I 29
!!!SMS-shelfwork: 001-001 M
!!!SMS-variant:
!!!SMS-altvar:
!!!NIFC-rismSourceID: 1001068253
!!!NIFC-islandoraID:
!!!URL-pdf-islandora:
!!!URL-scan: https://bc.bdsandomierz.pl/dlibra/publication/1262/edition/1230/content @EN{Scan in the Sandomierz Diocese Digital Library} @PL{Skany w portalu Cyfrowa Biblioteka Diecezjalna w Sandomierzu}
!!!ONB-nifc: UWAGA: części Vesperae: Domine ad adjuvandum,
!!!AIN: 3 empty 1 organ 2 violn 1 vox
!!!key:
**kern	**fba	**kern	**kern	**kern	**text	**kern	**text	**kern	**kern
*part7	*part7	*part6	*part5	*part4	*part4	*part3	*part3	*part2	*part1
*staff7	*staff7	*staff6	*staff5	*staff4	*staff4	*staff3	*staff3	*staff2	*staff1
*Iorgan	*	*Ivioln	*Ivioln	*Iempty	*	*Ivox	*	*Iempty	*Iempty
*I"Organo	*	*I"Violino Secundo	*I"Violino Primo	*I"Baſso.	*	*I"Canto	*	*I"Clarino 2do Ex. D.	*I"Clarino 1mo Ex D.
*I'org	*	*I'vl 2	*I'vl 1	*I'B	*	*I'S	*	*I'clno 2 in D	*I'clno 1 in D
*clefF4	*	*clefG2	*clefG2	*clefF4	*	*clefC1	*	*clefG2	*clefG2
*	*	*	*	*	*	*	*	*ITrd-1c-2	*ITrd-1c-2
*k[f#c#]	*	*k[f#c#]	*k[f#c#]	*k[f#c#]	*	*k[f#c#]	*	*k[f#c#]	*k[f#c#]
*D:	*	*D:	*D:	*D:	*	*D:	*	*D:	*D:
*M4/4	*	*M4/4	*M4/4	*M4/4	*	*M4/4	*	*M4/4	*M4/4
*met(c)	*	*met(c)	*met(c)	*met(c)	*	*met(c)	*	*met(c)	*met(c)
=1	=1	=1	=1	=1	=1	=1	=1	=1	=1
*2\right	*	*2\right	*2\right	*2\right	*	*2\right	*	*	*
!	!	!	!	!LO:SIC:o=D:v:t='D' znajduje się przed kluczem i oznaczeniem metrum	!	!LO:SIC:o=D:v:t='D' znajduje się przed kluczem i oznaczeniem metrum	!	!	!
!LO:SIC:o=Domine:v:t='Domine' znajduje się przed kluczem i oznaczeniem metrum	!	!LO:SIC:o=Domine:v:t='Domine' znajduje się przed kluczem i oznaczeniem metrum	!LO:SIC:o=Domine:v:t='Domine' znajduje się przed kluczem i oznaczeniem metrum	!	!	!	!	!	!
!LO:TX:a:Bi:t=Grave:rj	!	!	!LO:TX:a:Bi:t=Grave:rj	!LO:TX:a:Bi:t=Grave:rj	!	!LO:TX:a:Bi:t=Grave	!	!LO:TX:a:Bi:t=Grave	!LO:TX:a:Bi:t=Grave
!	!	!	!	!	!	!	!	!LO:TX:b:Bi:t=Domine Ad adjuvandum:dur=3wh:ext=s:problem=text with extention lines	!LO:TX:b:Bi:t=Domine ad adjuvandum:dur=3wh:ext=s:problem=text with extention lines
8d\L	.	8.dd\L	8.ff#\L	8.d\	Do-	8.ff#\	Do-	8.dd\L	8ff#\L
8c#\	.	.	.	.	.	.	.	.	8ff#\
.	.	16dd\K	16ff#\K	16c#\	-mi-	16ff#\	-mi-	16dd\K	.
8B\	.	8dd\	8ff#\	8B\	-ne	8ff#\	-ne	8dd\	8ff#\
8A\J	.	8dd\J	8ff#\J	8A\	ad	8ff#\	ad	8dd\J	8ff#\J
8B\L	3	8dd\L	8ff#\L	8B\	ad-	8ff#\	ad-	8dd\L	8ff#\L
8A\	.	8dd\	8ff#\	8A\	-ju-	8ff#\	-ju-	8dd\	8ff#\
8G\	.	8dd\	8ff#\	8G\	-van-	8ff#\	-van-	8dd\	8ff#\
8F#\J	.	8dd\J	8ff#\J	8F#\	-dum	8ff#\	-dum	8dd\J	8ff#\J
=2	=2	=2	=2	=2	=2	=2	=2	=2	=2
!LO:TX:a:t=P:problem=mixed beam	!	!	!	!	!	!	!	!LO:TX:a:t=P:problem=mixed beam	!
8G\L	6 5	8dd\L	8ee\L	8G\	me	8ee\	me	8dd\L	8ee\L
8E\	.	8dd\	8ee\	8E\	fe-	8ee\	fe-	8dd\	8ee\
!	!	!	!	!LO:TX:a:t=P:problem=mixed beam	!	!	!	!	!
8A\	4	8cc#\	8.ee\	(>8A\L	-ſti-	4ee\	-ſti-	8a/	8.eeT>\
.	3	.	.	.	.	.	.	.	.
8AA/J	.	8cc#\J	.	8AA/J)	.	.	.	8a/J	.
.	.	.	16ee\Jk	.	.	.	.	.	16ee\Jk
4D\	.	4dd\	4dd\	4D\	-na	4dd\	-na	4f#/	4dd\
8F#\L	.	8f#/L	8f#/L	8F#\	Glo-	8dd\	Glo-	4r	4r
8D\J	.	8d/J	8d/J	16F#\	-ri-	16dd\	-ri-	.	.
.	.	.	.	16F#\	-a	16dd\	-a	.	.
=3	=3	=3	=3	=3	=3	=3	=3	=3	=3
8A\L	4	8a/L	8a/L	8E\	Pa-	8dd\	Pa-	1r	1r
.	3_	.	.	.	.	.	.	.	.
(>16A\L	.	16a/L	16a/L	8E\	-tri	8cc#\	-tri	.	.
16B\JJ)	X	16b/JJ	16b/JJ	.	.	.	.	.	.
8c#\L	.	8cc#\L	8cc#\L	8E\	Glo-	8cc#\	Glo-	.	.
8A\J	.	8a\J	8a\J	16E\	-ri-	16cc#\	-ri-	.	.
.	.	.	.	16E\	-a	16cc#\	-a	.	.
!	!LO:TX:a:t=P:problem=w źródle tajemniczy znak w cyfrowaniu przypominający cyfre 8	!	!	!	!	!	!	!	!
8B\L	9	8b/L	8b/L	8D\	Fi-	8cc#\	fi-	.	.
.	8_	.	.	.	.	.	.	.	.
(>16B\L	.	16b/L	16b/L	16D\	-li-	16b\	-li-	.	.
16A\JJ)	.	16a/JJ	16a/JJ	16D\	-o	16b\	-o	.	.
(>8G#X\L	.	8g#X/L	8g#X/L	8D\	et	8b\	et	.	.
*	*	*	*	*	*	*custos:b	*	*	*
!	!	!	!	!	!	!LO:LB:g=original	!	!	!
8E\J)	X	8e/J	8e/J	8D\	ſpi-	8b\	ſpi-	.	.
!	!	!	!	!LO:LB:g=original	!	!	!	!	!
=4	=4	=4	=4	=4	=4	=4	=4	=4	=4
!LO:TX:a:t=P:problem=mixed beam	!	!	!	!	!	!	!	!	!
8A\L	9 3	8a/L	8a/L	8C#/	-ri-	8b\	-ri-	2r	2r
16C#/L	6	16c#/L	16c#/L	16C#/	-tu-	16a\	-tu-	.	.
16D/JJ	.	16d/JJ	16d/JJ	16C#/	-i	16a\	-i	.	.
!LO:TX:a:t=P:problem=mixed beam	!	!	!	!	!	!	!	!	!
8E\L	4	8e/L	8e/L	4BB/	ſan-	(>8a\L	ſan-	.	.
8EE/J	#	8e/J	8e/J	.	.	8g#X\J)	.	.	.
!	!	!	!LO:LB:g=original	!	!	!	!	!	!
4AA/	.	4A/	4A/	4C#/	-cto	4a\	-cto	4r	4r
8F#\L	6	8a/L	8dd\L	8F#\	ſi-	8dd\	ſi-	8f#/L	8dd\L
8D\J	.	8a/J	8dd\J	8D\	-cut	8dd\	-cut	8f#/J	8dd\J
!LO:LB:g=original	!	!LO:LB:g=original	!	!	!	!	!	!	!
=5	=5	=5	=5	=5	=5	=5	=5	=5	=5
!	!	!	!	!	!	!	!	!LO:TX:a:t=P:problem=mixed beam	!
8G\L	6 5	8b\L	8dd\L	8G\	e-	8dd\	e-	8dd\L	8dd\L
8E\	.	8ee\	8dd\	8E\	-rat	8dd\	-rat	8dd\	8dd\
!	!	!	!	!	!	!LO:SIC:s=in:v	!	!	!
8A\	.	8ee\	8cc#\	8A\	in	8cc#\	im	8a/	8ee\
8G\J	.	8ee\J	8cc#\J	8G\	prin-	8cc#\	prin-	8a/J	8ee\J
8F#\L	6	8.ff#\L	8.dd\L	8.F#\	-ci-	8.dd\	-ci-	8.dd\L	8.ff#\L
8E\	.	.	.	.	.	.	.	.	.
.	.	16ff#\K	16dd\K	16E\	-pi-	16dd\	-pi-	16dd\K	16ff#\K
8D\	.	8ff#\	8dd\	8D\	-o	8dd\	-o	8dd\	8ff#\
8A\J	.	8dd\J	8ee\J	8A\	et	8ee\	et	8a\J	8ee\J
=6	=6	=6	=6	=6	=6	=6	=6	=6	=6
8d\L	.	8a/L	8ff#\L	8d\	nunc	8ff#\	nunc	8a\L	8ff#\L
8c#\	6	8a/	8ee\	8c#\	et	8ee\	et	8a\	8ee\
8d\	.	8a/	8ff#\	8d\	nunc	8ff#\	nunc	8dd\	8ff#\
8G\J	6	8ee/J	8gg\J	8G\	et	8gg\	et	8ee\J	8gg\J
!	!	!	!	!	!	!	!	!LO:TX:a:t=P:problem=mixed beam	!
8A\L	6 4	8dd\L	8ff#\L	8A\	ſem-	8ff#\	ſem-	8dd\L	8ff#\L
.	5 3	.	.	.	.	.	.	.	.
8A\	.	8cc#\	8ee\	8A\	-per	8ee\	-per	8a/	8ee\
8A\	.	8cc#\	8ee\	8A\	et	8ee\	et	8a/	8ee\
8A\J	.	8cc#\J	8ee\J	8A\	in	8ee\	in	8a/J	8ee\J
=7	=7	=7	=7	=7	=7	=7	=7	=7	=7
8d\L	.	8dd\L	8ff#\L	8d\	ſae-	8ff#\	ſae-	8d/L	8ff#\L
8c#\	.	8ee\	8ee\	16c#\	-cu-	16ee\	-cu-	8f#/J	8ee\
!	!	!	!	!	!	!LO:LB:g=original	!	!	!
.	.	.	.	16c#\	-la	16ee\	-la	.	.
8B\	.	8dd\	8dd\	8B\	ſae-	8dd\	ſae-	8dd\L	8dd\
8G\J	6	8b\J	8ee\J	8G\	-cu-	8ee\	-cu-	8ee\J	8ee\J
8A\L	.	8a/L	8ee\L	8A\	-lo-	8cc#\	-lo-	8a\L	8ee\L
8F#\	6	8a/	8ff#\J	8F#\	-rum	8dd\	-rum	8dd\	8ff#\
!	!	!	!	!LO:LB:g=original	!	!	!	!	!
8G\	6 5	8b/	8ee\L	(>8G\L	a-	(>8dd\L	a-	8dd\	8.ee\
8A\J	.	8e/J	16dd\L	8A\J)	.	8cc#\J)	.	8a\J	.
.	.	.	16cc#\JJ	.	.	.	.	.	16ee\Jk
=8	=8	=8	=8	=8	=8	=8	=8	=8	=8
4D/	.	4f#/	4dd\	4D/	-men	4dd\	-men	4f#/	4dd\
4r	.	4r	4r	4r	.	4r	.	4r	4r
2r	.	2r	2r	2r	.	2r	.	2r	2r
=9||	=9||	=9||	=9||	=9||	=9||	=9||	=9||	=9||	=9||
1G	.	4.b\	4.b\	4.G\	al-	4.b\	Al-	4.d/	4.d/
.	.	8b\	8gg\	8G\	-le-	8b\	-le-	8d/	8d/
.	.	2b\	2gg\	2G\	-lu-	2b\	-lu-	2d/	2d/
=10	=10	=10	=10	=10	=10	=10	=10	=10	=10
2D\	.	2a/	2ff#\	2D\	-ja	2a\	-ja	2d/	2d/
2r	.	2r	2r	2r	.	2r	.	2r	2r
!LO:TX:a:t=P:problem=w źródle ozdobna kreska końcowa	!	!LO:TX:a:t=P:problem=w źródle ozdobna kreska końcowa	!LO:TX:a:t=P:problem=w źródle ozdobna kreska końcowa	!LO:TX:a:t=P:problem=w źródle ozdobna kreska końcowa	!	!LO:TX:a:t=P:problem=w źródle ozdobna kreska końcowa	!	!LO:TX:a:t=P:problem=w źródle ozdobna kreska końcowa	!LO:TX:a:t=P:problem=w źródle ozdobna kreska końcowa
==	==	==	==	==	==	==	==	==	==
*-	*-	*-	*-	*-	*-	*-	*-	*-	*-
!!!system-decoration: [(s1,s2)][(s3,s4)][(s5,s6)]s7
!!!RDF**kern: > = above
!!!RDF**kern: < = below
!!!EED: Wojciech Jakubiak-Danek
!!!EEV: 2020-11-04
!!!ENC: Krzysztof Stępień
!!!END: 2020-05-23
